icons/line/calendar.svg

<svg width="24" height="24" viewBox="0 0 24 24" fill="none" xmlns="http://www.w3.org/2000/svg">
<path d="M4 9V19C4 20.1046 4.89543 21 6 21H18C19.1046 21 20 20.1046 20 19V9M4 9V7C4 5.89543 4.89543 5 6 5H8M4 9H20M20 9V7C20 5.89543 19.1046 5 18 5H16M16 5V3M16 5H8M8 3V5" stroke="currentColor" stroke-width="2" stroke-linecap="round" stroke-linejoin="round"/>
</svg>

<svg width="24" height="24" fill="none" xmlns="http://www.w3.org/2000/svg"><path d="M4 9v10a2 2 0 002 2h12a2 2 0 002-2V9M4 9V7a2 2 0 012-2h2M4 9h16m0 0V7a2 2 0 00-2-2h-2m0 0V3m0 2H8m0-2v2" stroke="currentColor" stroke-width="2" stroke-linecap="round" stroke-linejoin="round"/></svg>
